githubblocks.svg

<?xml version="1.0" encoding="UTF-8"?>
<svg viewBox="0 0 24 24" version="1.1" xmlns="http://www.w3.org/2000/svg" xmlns:xlink="http://www.w3.org/1999/xlink">
    <title>GitHub Blocks</title>
    <defs>
        <linearGradient x1="0%" y1="0%" x2="100%" y2="0%" id="linearGradient-1">
            <stop stop-color="#FFFFFF" offset="0%"></stop>
            <stop stop-color="#B88AE1" offset="50%"></stop>
            <stop stop-color="#79C0FF" offset="100%"></stop>
        </linearGradient>
    </defs>
    <path d="M17.452706,1.61588936 C19.9347096,-0.538629787 21.3452731,-0.538629787 23.8272766,1.61588936 C24.0309294,1.7926714 24.0584449,2.10795375 23.8887343,2.3200922 C23.7190237,2.53223065 23.4163529,2.56089268 23.2127002,2.38411064 C21.0867084,0.538629787 20.1932742,0.538629787 18.0672824,2.38411064 C15.5852789,4.53862979 14.1747154,4.53862979 11.6927118,2.38411064 C9.56671999,0.538629787 8.67328579,0.538629787 6.54729398,2.38411064 C4.06529041,4.53862979 2.65472692,4.53862979 0.172723351,2.38411064 C-0.0309293557,2.2073286 -0.0584448787,1.89204625 0.11126571,1.6799078 C0.280976299,1.46776935 0.583647052,1.43910732 0.787299758,1.61588936 C2.91329157,3.46137021 3.80672576,3.46137021 5.93271757,1.61588936 C8.41472114,-0.538629787 9.82528464,-0.538629787 12.3072882,1.61588936 C14.43328,3.46137021 15.3267142,3.46137021 17.452706,1.61588936 Z" fill="url(#linearGradient-1)"></path>
</svg>

<svg viewBox="0 0 24 24" xmlns="http://www.w3.org/2000/svg"><defs><linearGradient x1="0%" y1="0%" x2="100%" y2="0%" id="a"><stop stop-color="#FFF" offset="0%"/><stop stop-color="#B88AE1" offset="50%"/><stop stop-color="#79C0FF" offset="100%"/></linearGradient></defs><path d="M17.453 1.616c2.482-2.155 3.892-2.155 6.374 0a.514.514 0 0 1 .062.704.467.467 0 0 1-.676.064c-2.126-1.845-3.02-1.845-5.146 0-2.482 2.155-3.892 2.155-6.374 0C9.567.54 8.673.54 6.547 2.384 4.065 4.54 2.655 4.54.173 2.384A.514.514 0 0 1 .11 1.68a.467.467 0 0 1 .676-.064c2.126 1.845 3.02 1.845 5.146 0 2.482-2.155 3.892-2.155 6.374 0 2.126 1.845 3.02 1.845 5.146 0Z" fill="url(#a)"/></svg>
